brandFactory_export/1.Light/Calavera _1Light.svg

<?xml version="1.0" encoding="UTF-8"?>
<svg width="24px" height="24px" viewBox="0 0 24 24" version="1.1" xmlns="http://www.w3.org/2000/svg" xmlns:xlink="http://www.w3.org/1999/xlink">
    <title>1.Light/Calavera _1Light</title>
    <g id="Symbols" stroke="none" stroke-width="1" fill="none" fill-rule="evenodd">
        <g id="1.Light/Calavera-_1Light" fill="#5CB615" fill-rule="nonzero">
            <path d="M6.71092437,13.0487395 C7.40672269,13.0352941 9.0302521,12.7764706 9.0302521,10.6285714 C9.0302521,10.4739496 9.02352941,10.3260504 9.00672269,10.1915966 C8.80504202,8.43361345 7.32268908,8.20840336 6.69411765,8.19495798 L6.43193277,8.19159664 C5.8,8.19831933 4.31428571,8.41008403 4.14957983,10.2521008 C4.1394958,10.3630252 4.13613445,10.4840336 4.13613445,10.6117647 C4.13613445,12.7798319 5.75966387,13.0420168 6.45882353,13.0521008 L6.71092437,13.0487395 L6.71092437,13.0487395 Z M10.0420168,10.0705882 C10.0621849,10.2453782 10.0722689,10.4302521 10.0722689,10.6252101 C10.0722689,13.1327731 8.27058824,14.0537815 6.72436975,14.0806723 L6.43529412,14.0806723 C4.81512605,14.0571429 3.08403361,13.1294118 3.08403361,10.6084034 C3.08403361,10.4504202 3.0907563,10.302521 3.10420168,10.1579832 C3.29915966,7.96302521 4.94285714,7.16638655 6.41512605,7.15294118 L6.71428571,7.15630252 C8.16638655,7.18991597 9.8,7.97310924 10.0420168,10.0705882 Z M17.1747899,13.0487395 C17.8672269,13.0352941 19.4941176,12.7764706 19.4941176,10.6285714 C19.4941176,10.4739496 19.4840336,10.3260504 19.4672269,10.1882353 C19.2655462,8.43361345 17.7831933,8.20840336 17.1546218,8.19495798 L16.892437,8.19159664 L16.8890756,8.19159664 C16.2605042,8.19831933 14.7714286,8.41008403 14.610084,10.2521008 C14.6,10.3630252 14.5932773,10.4840336 14.5932773,10.6117647 C14.5932773,12.7798319 16.2168067,13.0420168 16.9159664,13.0521008 L17.1747899,13.0487395 L17.1747899,13.0487395 Z M20.5058824,10.0705882 C20.5260504,10.2487395 20.5361345,10.4302521 20.5361345,10.6252101 C20.5361345,13.1327731 18.7344538,14.0537815 17.1882353,14.0806723 L16.8991597,14.0806723 C15.2789916,14.0571429 13.5478992,13.1294118 13.5478992,10.6084034 C13.5478992,10.4504202 13.5546218,10.302521 13.5680672,10.1579832 C13.7630252,7.95966387 15.4067227,7.16638655 16.8789916,7.15294118 L17.1781513,7.15630252 C18.6302521,7.18991597 20.2638655,7.97310924 20.5058824,10.0705882 Z M11.0571429,15.3142857 C11.3226891,15.4252101 11.4470588,15.7277311 11.3361345,15.989916 L10.8991597,17.0151261 C10.7747899,17.2739496 10.4655462,17.3848739 10.2033613,17.2638655 C9.96134454,17.1495798 9.84369748,16.8672269 9.93781513,16.6151261 L10.3747899,15.589916 C10.4890756,15.3277311 10.794958,15.2033613 11.0571429,15.3142857 L11.0571429,15.3142857 Z M12.9865546,15.589916 L13.4235294,16.6151261 C13.5344538,16.8773109 13.410084,17.1798319 13.1478992,17.2907563 L13.1445378,17.2907563 C12.8789916,17.4016807 12.5764706,17.2773109 12.4621849,17.0151261 L12.0252101,15.989916 C11.9142857,15.7277311 12.0352941,15.4252101 12.3008403,15.3109244 C12.3008403,15.3109244 12.3042017,15.3109244 12.3042017,15.307563 C12.5663866,15.2033613 12.8722689,15.3243697 12.9865546,15.589916 L12.9865546,15.589916 Z M17.6991597,18.9546218 C20.3008403,17.3579832 21.6218487,14.6016807 21.6218487,10.7663866 C21.6218487,1.93613445 14.4655462,1.09579832 12.2705882,1.0487395 C11.9579832,1.03865546 11.6151261,1.03865546 11.302521,1.03865546 L11.2689076,1.03865546 C10.3445378,1.04201681 7.97478992,1.19663866 5.87731092,2.50420168 C3.3394958,4.08739496 2.05210084,6.84705882 2.05210084,10.7058824 C2.05210084,14.6016807 3.3697479,17.3781513 5.97142857,18.9613445 L6.46890756,19.2638655 L6.46890756,20.6184874 C6.46890756,21.3042017 6.64033613,21.8016807 6.98319328,22.097479 C7.4302521,22.5042017 8.13613445,22.5848739 8.65378151,22.5848739 L15.0571429,22.5848739 C15.8,22.5848739 16.3546218,22.4235294 16.697479,22.1109244 C17.0369748,21.8084034 17.2016807,21.307563 17.2016807,20.6151261 L17.2016807,19.2504202 C17.205042,19.2571429 17.6991597,18.9546218 17.6991597,18.9546218 L17.6991597,18.9546218 Z M12.2941176,0.0100840336 C14.4117647,0.0537815126 22.6672269,0.890756303 22.6672269,10.7630252 C22.6672269,15.7277311 20.5865546,18.4 18.2504202,19.8319328 L18.2504202,20.6184874 C18.2504202,21.6033613 17.9747899,22.3731092 17.4067227,22.8739496 C16.8621849,23.3680672 16.0756303,23.6201681 15.0605042,23.6201681 L8.65042017,23.6201681 C7.63193277,23.6201681 6.83529412,23.3680672 6.2907563,22.8739496 C5.71260504,22.3697479 5.42352941,21.6033613 5.42352941,20.6151261 L5.42352941,19.8386555 C3.0907563,18.4201681 1.01008403,15.7277311 1.01008403,10.7058824 C1.01008403,0.756302521 9.0907563,0.0100840336 11.2655462,0 C11.5983193,0 11.9714286,0 12.2941176,0.0100840336 Z" id="Calavera-_1Light"></path>
        </g>
    </g>
</svg>

<svg width="24" height="24" viewBox="0 0 24 24" xmlns="http://www.w3.org/2000/svg"><path d="M6.71 13.049c.697-.014 2.32-.273 2.32-2.42 0-.155-.006-.303-.023-.437-.202-1.758-1.684-1.984-2.313-1.997l-.262-.003c-.632.006-2.118.218-2.282 2.06a4.03 4.03 0 00-.014.36c0 2.168 1.624 2.43 2.323 2.44l.252-.003zm3.332-2.978c.02.174.03.36.03.554 0 2.508-1.801 3.429-3.348 3.456h-.289c-1.62-.024-3.351-.952-3.351-3.473 0-.158.007-.305.02-.45.195-2.195 1.839-2.992 3.311-3.005l.3.003c1.451.034 3.085.817 3.327 2.915zm7.133 2.978c.692-.014 2.32-.273 2.32-2.42 0-.155-.011-.303-.028-.44-.201-1.755-1.684-1.98-2.312-1.994l-.263-.003h-.003c-.628.006-2.118.218-2.279 2.06-.01.111-.017.232-.017.36 0 2.168 1.624 2.43 2.323 2.44l.259-.003zm3.33-2.978c.021.178.031.36.031.554 0 2.508-1.802 3.429-3.348 3.456H16.9c-1.62-.024-3.351-.952-3.351-3.473 0-.158.007-.305.02-.45.195-2.198 1.839-2.992 3.311-3.005l.3.003c1.451.034 3.085.817 3.327 2.915zm-9.448 5.243c.266.111.39.414.28.676l-.438 1.025a.526.526 0 01-.696.249.519.519 0 01-.265-.649l.437-1.025a.525.525 0 01.682-.276zm1.93.276l.437 1.025a.516.516 0 01-.276.676h-.003a.524.524 0 01-.683-.276l-.437-1.025a.518.518 0 01.276-.68s.003 0 .003-.002a.531.531 0 01.683.282zm4.712 3.365c2.602-1.597 3.923-4.353 3.923-8.189 0-8.83-7.156-9.67-9.351-9.717-.313-.01-.656-.01-.968-.01h-.034c-.924.003-3.294.158-5.392 1.465-2.538 1.583-3.825 4.343-3.825 8.202 0 3.896 1.318 6.672 3.92 8.255l.497.303v1.354c0 .686.171 1.184.514 1.48.447.406 1.153.487 1.67.487h6.404c.743 0 1.298-.161 1.64-.474.34-.303.505-.803.505-1.496V19.25c.003.007.497-.295.497-.295zM12.294.01c2.118.044 10.373.88 10.373 10.753 0 4.965-2.08 7.637-4.417 9.069v.786c0 .985-.275 1.755-.843 2.256-.545.494-1.331.746-2.346.746H8.65c-1.02 0-1.816-.252-2.36-.746-.578-.504-.867-1.27-.867-2.259v-.776C3.09 18.42 1.01 15.728 1.01 10.706 1.01.756 9.09.01 11.266 0c.332 0 .705 0 1.028.01z" fill="#5CB615" fill-rule="nonzero"/></svg>
